X:81
M:2/4
L:1/8
K:Bb
|: Acec | Bbab | Acec | Bbab | Acec | Bbab | deAc | B2 B,2 :|

